src/skills/remotion-render/public/luts/editorial-grade.cube
TITLE "editorial-grade (generated, see effects/generate-editorial-lut.mjs)"
LUT_3D_SIZE 5
DOMAIN_MIN 0.0 0.0 0.0
DOMAIN_MAX 1.0 1.0 1.0
0.030000 0.015000 0.000000
0.197094 0.030430 0.000000
0.379250 0.046100 0.009604
0.567914 0.062001 0.029757
0.754532 0.078123 0.050131
0.077481 0.224996 0.037149
0.250747 0.242706 0.057602
0.436119 0.260544 0.078263
0.625043 0.278500 0.099123
0.808966 0.296566 0.120174
0.127430 0.455047 0.106766
0.305846 0.473681 0.127883
0.493412 0.492329 0.149178
0.681576 0.510984 0.170642
0.861782 0.529637 0.192264
0.179492 0.688735 0.178496
0.362037 0.706934 0.200174
0.550777 0.725037 0.221998
0.737158 0.743033 0.243959
0.912626 0.760915 0.266048
0.233315 0.909638 0.251987
0.418968 0.926046 0.274120
0.607860 0.942245 0.296369
0.791437 0.958227 0.318723
0.961146 0.973980 0.341174
0.034671 0.020213 0.128747
0.202435 0.035725 0.150267
0.384962 0.051475 0.171942
0.573698 0.067452 0.193764
0.760091 0.083647 0.215723
0.082418 0.230995 0.201743
0.256250 0.248750 0.223750
0.441890 0.266629 0.245881
0.630783 0.284624 0.268128
0.814378 0.302725 0.290481
0.132595 0.461373 0.276254
0.311475 0.480013 0.298643
0.499206 0.498665 0.321125
0.687236 0.517320 0.343692
0.867010 0.535969 0.366333
0.184851 0.694926 0.351926
0.367757 0.713093 0.374593
0.556558 0.731161 0.397321
0.742702 0.749119 0.420102
0.917636 0.766960 0.442928
0.238832 0.915233 0.428408
0.424742 0.931571 0.451246
0.613593 0.947698 0.474116
0.796830 0.963603 0.497007
0.965902 0.979277 0.519911
0.039371 0.025454 0.301086
0.207794 0.041048 0.323680
0.390681 0.056876 0.346345
0.579480 0.072928 0.369072
0.765636 0.089195 0.391853
0.087379 0.237010 0.377360
0.261767 0.254808 0.400158
0.447664 0.272728 0.422996
0.636517 0.290760 0.445865
0.819772 0.308894 0.468756
0.137782 0.467701 0.454197
0.317114 0.486346 0.477094
0.505000 0.505000 0.500000
0.692886 0.523654 0.522906
0.872218 0.542299 0.545803
0.190228 0.701106 0.531244
0.373483 0.719240 0.554135
0.562336 0.737272 0.577004
0.748233 0.755192 0.599842
0.922621 0.772990 0.622640
0.244364 0.920805 0.608147
0.430520 0.937072 0.630928
0.619319 0.953124 0.653655
0.802206 0.968952 0.676320
0.970629 0.984546 0.698914
0.044098 0.030723 0.480089
0.213170 0.046397 0.502993
0.396407 0.062302 0.525884
0.585258 0.078429 0.548754
0.771168 0.094767 0.571592
0.092364 0.243040 0.557072
0.267298 0.260881 0.579898
0.453442 0.278839 0.602679
0.642243 0.296907 0.625407
0.825149 0.315074 0.648074
0.142990 0.474031 0.633667
0.322764 0.492680 0.656308
0.510794 0.511335 0.678875
0.698525 0.529987 0.701357
0.877405 0.548627 0.723746
0.195622 0.707275 0.709519
0.379217 0.725376 0.731872
0.568110 0.743371 0.754119
0.753750 0.761250 0.776250
0.927582 0.779005 0.798257
0.249909 0.926353 0.784277
0.436302 0.942548 0.806236
0.625038 0.958525 0.828058
0.807565 0.974275 0.849733
0.975329 0.989787 0.871253
0.048854 0.036020 0.658826
0.218563 0.051773 0.681277
0.402140 0.067755 0.703631
0.591032 0.083954 0.725880
0.776685 0.100362 0.748013
0.097374 0.249085 0.733952
0.272842 0.266967 0.756041
0.459223 0.284963 0.778002
0.647963 0.303066 0.799826
0.830508 0.321265 0.821504
0.148218 0.480363 0.807736
0.328424 0.499016 0.829358
0.516588 0.517671 0.850822
0.704154 0.536319 0.872117
0.882570 0.554953 0.893234
0.201034 0.713434 0.879826
0.384957 0.731500 0.900877
0.573881 0.749456 0.921737
0.759253 0.767294 0.942398
0.932519 0.785004 0.962851
0.255468 0.931877 0.949869
0.442086 0.947999 0.970243
0.630750 0.963900 0.990396
0.812906 0.979570 1.000000
0.980000 0.995000 1.000000
