src/skills/remotion-render/public/luts/editorial-grade.cube
TITLE "editorial-grade (generated, see effects/generate-editorial-lut.mjs)"
LUT_3D_SIZE 17
DOMAIN_MIN 0.0 0.0 0.0
DOMAIN_MAX 1.0 1.0 1.0
0.030000 0.015000 0.000000
0.069894 0.018835 0.000000
0.111130 0.022685 0.000000
0.153575 0.026550 0.000000
0.197094 0.030430 0.000000
0.241556 0.034326 0.000000
0.286824 0.038236 0.000000
0.332767 0.042161 0.004602
0.379250 0.046100 0.009604
0.426140 0.050054 0.014621
0.473303 0.054022 0.019652
0.520606 0.058005 0.024698
0.567914 0.062001 0.029757
0.615094 0.066011 0.034830
0.662013 0.070035 0.039917
0.708537 0.074072 0.045017
0.754532 0.078123 0.050131
0.041620 0.064721 0.000000
0.081993 0.068732 0.000000
0.123661 0.072757 0.000000
0.166493 0.076796 0.001428
0.210353 0.080848 0.006421
0.255108 0.084914 0.011429
0.300625 0.088992 0.016451
0.346770 0.093083 0.021488
0.393408 0.097188 0.026538
0.440408 0.101304 0.031602
0.487634 0.105434 0.036681
0.534954 0.109575 0.041772
0.582233 0.113729 0.046878
0.629338 0.117895 0.051996
0.676136 0.122073 0.057128
0.722492 0.126263 0.062273
0.768273 0.130465 0.067431
0.053410 0.116465 0.003244
0.094246 0.120632 0.008243
0.136332 0.124811 0.013256
0.179534 0.129002 0.018283
0.223718 0.133205 0.023325
0.268752 0.137419 0.028380
0.314501 0.141644 0.033450
0.360831 0.145881 0.038533
0.407610 0.150128 0.043629
0.454703 0.154387 0.048740
0.501976 0.158656 0.053863
0.549297 0.162936 0.059000
0.596531 0.167226 0.064149
0.643545 0.171527 0.069312
0.690205 0.175838 0.074487
0.736378 0.180159 0.079675
0.781930 0.184490 0.084875
0.065366 0.169975 0.020117
0.106649 0.174277 0.025164
0.149135 0.178589 0.030224
0.192692 0.182911 0.035299
0.237185 0.187243 0.040387
0.282481 0.191584 0.045488
0.328446 0.195935 0.050603
0.374946 0.200296 0.055732
0.421848 0.204666 0.060873
0.469019 0.209045 0.066027
0.516324 0.213433 0.071194
0.563630 0.217830 0.076374
0.610803 0.222236 0.081566
0.657710 0.226650 0.086771
0.704217 0.231073 0.091988
0.750190 0.235504 0.097217
0.795496 0.239943 0.102458
0.077481 0.224996 0.037149
0.119195 0.229411 0.042242
0.162067 0.233834 0.047349
0.205962 0.238266 0.052469
0.250747 0.242706 0.057602
0.296290 0.247154 0.062748
0.342455 0.251610 0.067907
0.389109 0.256073 0.073079
0.436119 0.260544 0.078263
0.483351 0.265022 0.083460
0.530672 0.269508 0.088669
0.577947 0.274001 0.093890
0.625043 0.278500 0.099123
0.671827 0.283007 0.104369
0.718165 0.287520 0.109626
0.763922 0.292040 0.114894
0.808966 0.296566 0.120174
0.089751 0.281270 0.054336
0.131880 0.285777 0.059474
0.175120 0.290291 0.064625
0.219338 0.294811 0.069788
0.264400 0.299338 0.074965
0.310173 0.303871 0.080153
0.356522 0.308410 0.085355
0.403315 0.312955 0.090568
0.450417 0.317506 0.095794
0.497694 0.322062 0.101032
0.545014 0.326624 0.106281
0.592243 0.331192 0.111542
0.639246 0.335764 0.116815
0.685891 0.340342 0.122099
0.732043 0.344925 0.127395
0.777569 0.349512 0.132701
0.822336 0.354104 0.138018
0.102169 0.338541 0.071671
0.144697 0.343119 0.076852
0.188291 0.347702 0.082046
0.232815 0.352290 0.087251
0.278138 0.356882 0.092469
0.324125 0.361479 0.097699
0.370643 0.366080 0.102941
0.417557 0.370686 0.108195
0.464735 0.375295 0.113461
0.512042 0.379909 0.118737
0.559346 0.384526 0.124026
0.606512 0.389146 0.129325
0.653406 0.393771 0.134636
0.699896 0.398398 0.139957
0.745847 0.403029 0.145289
0.791126 0.407663 0.150632
0.835599 0.412299 0.155985
0.114731 0.396552 0.089150
0.157642 0.401180 0.094372
0.201572 0.405811 0.099606
0.246388 0.410445 0.104853
0.291955 0.415082 0.110111
0.338141 0.419721 0.115380
0.384810 0.424364 0.120661
0.431831 0.429008 0.125954
0.479069 0.433655 0.131257
0.526390 0.438304 0.136572
0.573661 0.442955 0.141897
0.620748 0.447608 0.147233
0.667518 0.452263 0.152580
0.713836 0.456919 0.157937
0.759570 0.461577 0.163304
0.804586 0.466236 0.168682
0.848749 0.470896 0.174069
0.127430 0.455047 0.106766
0.170708 0.459704 0.112028
0.214959 0.464361 0.117302
0.260050 0.469020 0.122587
0.305846 0.473681 0.127883
0.352214 0.478342 0.133191
0.399020 0.483004 0.138509
0.446131 0.487666 0.143838
0.493412 0.492329 0.149178
0.540731 0.496993 0.154529
0.587954 0.501657 0.159890
0.634947 0.506321 0.165261
0.681576 0.510984 0.170642
0.727707 0.515648 0.176033
0.773208 0.520312 0.181434
0.817944 0.524974 0.186844
0.861782 0.529637 0.192264
0.140261 0.513770 0.124514
0.183891 0.518433 0.129814
0.228447 0.523097 0.135126
0.273796 0.527760 0.140448
0.319805 0.532422 0.145781
0.366340 0.537083 0.151125
0.413266 0.541744 0.156479
0.460451 0.546403 0.161844
0.507761 0.551061 0.167219
0.555061 0.555718 0.172603
0.602220 0.560373 0.177998
0.649102 0.565027 0.183402
0.695574 0.569679 0.188816
0.741503 0.574329 0.194240
0.786754 0.578977 0.199672
0.831195 0.583622 0.205114
0.874692 0.588266 0.210565
0.153219 0.572463 0.142389
0.197184 0.577113 0.147726
0.242029 0.581760 0.153073
0.287621 0.586406 0.158431
0.333827 0.591049 0.163799
0.380512 0.595689 0.169178
0.427543 0.600327 0.174566
0.474786 0.604962 0.179964
0.522108 0.609594 0.185372
0.569374 0.614223 0.190790
0.616452 0.618849 0.196216
0.663208 0.623471 0.201653
0.709507 0.628090 0.207098
0.755217 0.632705 0.212552
0.800204 0.637316 0.218015
0.844334 0.641923 0.223486
0.887473 0.646526 0.228967
0.166297 0.630870 0.160384
0.210582 0.635485 0.165756
0.255700 0.640096 0.171138
0.301520 0.644702 0.176530
0.347906 0.649305 0.181932
0.394726 0.653903 0.187343
0.441845 0.658497 0.192764
0.489131 0.663087 0.198194
0.536448 0.667671 0.203634
0.583665 0.672251 0.209082
0.630646 0.676826 0.214540
0.677260 0.681395 0.220006
0.723371 0.685960 0.225481
0.768846 0.690519 0.230964
0.813551 0.695072 0.236455
0.857354 0.699620 0.241955
0.900119 0.704161 0.247463
0.179492 0.688735 0.178496
0.224080 0.693293 0.183901
0.269456 0.697846 0.189316
0.315486 0.702393 0.194740
0.362037 0.706934 0.200174
0.408975 0.711469 0.205616
0.456167 0.715998 0.211068
0.503479 0.720520 0.216529
0.550777 0.725037 0.221998
0.597927 0.729546 0.227476
0.644797 0.734049 0.232962
0.691251 0.738544 0.238457
0.737158 0.743033 0.243959
0.782382 0.747515 0.249470
0.826791 0.751989 0.254988
0.870250 0.756456 0.260515
0.912626 0.760915 0.266048
0.192796 0.745801 0.196717
0.237671 0.750281 0.202154
0.283289 0.754755 0.207600
0.329514 0.759221 0.213055
0.376214 0.763679 0.218519
0.423255 0.768130 0.223991
0.470504 0.772572 0.229472
0.517826 0.777007 0.234961
0.565088 0.781433 0.240459
0.612156 0.785851 0.245965
0.658897 0.790260 0.251478
0.705178 0.794661 0.256999
0.750863 0.799053 0.262528
0.795821 0.803436 0.268065
0.839917 0.807810 0.273609
0.883017 0.812175 0.279160
0.924988 0.816530 0.284718
0.206205 0.801811 0.215043
0.251352 0.806193 0.220510
0.297194 0.810566 0.225986
0.343599 0.814930 0.231470
0.390432 0.819284 0.236962
0.437560 0.823629 0.242462
0.484849 0.827964 0.247971
0.532165 0.832289 0.253487
0.579375 0.836604 0.259011
0.626346 0.840910 0.264543
0.672943 0.845205 0.270082
0.719033 0.849489 0.275629
0.764482 0.853763 0.281182
0.809157 0.858026 0.286743
0.852924 0.862279 0.292311
0.895649 0.866520 0.297885
0.937199 0.870750 0.303466
0.219713 0.856509 0.233468
0.265116 0.860771 0.238964
0.311167 0.865022 0.244467
0.357735 0.869263 0.249978
0.404685 0.873492 0.255498
0.451884 0.877710 0.261024
0.499197 0.881916 0.266559
0.546492 0.886111 0.272101
0.593635 0.890294 0.277650
0.640491 0.894465 0.283206
0.686928 0.898625 0.288769
0.732812 0.902772 0.294339
0.778009 0.906906 0.299916
0.822385 0.911029 0.305499
0.865807 0.915138 0.311089
0.908141 0.919235 0.316684
0.949254 0.923319 0.322286
0.233315 0.909638 0.251987
0.278957 0.913759 0.257509
0.325202 0.917868 0.263039
0.371917 0.921963 0.268576
0.418968 0.926046 0.274120
0.466221 0.930116 0.279672
0.513543 0.934172 0.285231
0.560801 0.938216 0.290796
0.607860 0.942245 0.296369
0.654586 0.946261 0.301948
0.700847 0.950264 0.307533
0.746509 0.954252 0.313125
0.791437 0.958227 0.318723
0.835498 0.962187 0.324327
0.878560 0.966132 0.329937
0.920487 0.970064 0.335553
0.961146 0.973980 0.341174
0.031165 0.016300 0.008034
0.071108 0.020140 0.013066
0.112389 0.023996 0.018112
0.154873 0.027866 0.023173
0.198428 0.031751 0.028247
0.242919 0.035652 0.033335
0.288214 0.039567 0.038436
0.334178 0.043497 0.043551
0.380677 0.047442 0.048679
0.427579 0.051400 0.053820
0.474749 0.055373 0.058974
0.522054 0.059360 0.064141
0.569360 0.063361 0.069321
0.616534 0.067376 0.074513
0.663441 0.071405 0.079717
0.709949 0.075447 0.084934
0.755923 0.079502 0.090162
0.042802 0.066081 0.025018
0.083223 0.070098 0.030098
0.124934 0.074127 0.035190
0.167804 0.078171 0.040297
0.211697 0.082227 0.045416
0.256481 0.086297 0.050549
0.302022 0.090380 0.055695
0.348187 0.094476 0.060854
0.394840 0.098584 0.066025
0.441850 0.102705 0.071209
0.489082 0.106839 0.076406
0.536402 0.110985 0.081615
0.583677 0.115143 0.086836
0.630774 0.119313 0.092069
0.677559 0.123495 0.097314
0.723897 0.127689 0.102571
0.769656 0.131894 0.107839
0.054610 0.117878 0.042159
0.095491 0.122050 0.047283
0.137618 0.126233 0.052421
0.180857 0.130428 0.057572
0.225073 0.134634 0.062735
0.270134 0.138852 0.067911
0.315905 0.143081 0.073100
0.362254 0.147322 0.078301
0.409045 0.151573 0.083514
0.456147 0.155835 0.088740
0.503425 0.160108 0.093977
0.550744 0.164392 0.099226
0.597973 0.168686 0.104487
0.644977 0.172990 0.109760
0.691623 0.177304 0.115044
0.737776 0.181629 0.120339
0.783303 0.185963 0.125645
0.066582 0.171435 0.059450
0.107909 0.175740 0.064618
0.150435 0.180055 0.069799
0.194027 0.184381 0.074992
0.238550 0.188716 0.080197
0.283871 0.193061 0.085415
0.329857 0.197415 0.090645
0.376374 0.201779 0.095887
0.423288 0.206152 0.101140
0.470465 0.210534 0.106406
0.517772 0.214925 0.111682
0.565076 0.219325 0.116970
0.612242 0.223734 0.122270
0.659137 0.228151 0.127580
0.705628 0.232576 0.132901
0.751580 0.237010 0.138233
0.796860 0.241452 0.143576
0.078713 0.226494 0.076886
0.120470 0.230912 0.082096
0.163379 0.235338 0.087318
0.207308 0.239773 0.092552
0.252122 0.244216 0.097798
0.297688 0.248666 0.103056
0.343872 0.253125 0.108325
0.390541 0.257591 0.113606
0.437561 0.262064 0.118898
0.484799 0.266545 0.124202
0.532120 0.271033 0.129516
0.579391 0.275528 0.134841
0.626479 0.280030 0.140177
0.673249 0.284539 0.145523
0.719569 0.289054 0.150880
0.765304 0.293576 0.156247
0.810321 0.298105 0.161625
0.090998 0.282800 0.094461
0.133168 0.287309 0.099711
0.176445 0.291825 0.104973
0.220694 0.296348 0.110247
0.265783 0.300877 0.115532
0.311578 0.305412 0.120828
0.357945 0.309953 0.126135
0.404751 0.314500 0.131453
0.451861 0.319053 0.136782
0.499143 0.323611 0.142122
0.546462 0.328175 0.147472
0.593684 0.332744 0.152833
0.640678 0.337318 0.158204
0.687307 0.341898 0.163585
0.733440 0.346482 0.168976
0.778942 0.351071 0.174376
0.823680 0.355664 0.179787
0.103431 0.340095 0.112169
0.145998 0.344675 0.117458
0.189626 0.349259 0.122759
0.234181 0.353849 0.128070
0.279529 0.358443 0.133392
0.325537 0.363041 0.138725
0.372071 0.367644 0.144069
0.418997 0.372251 0.149423
0.466181 0.376862 0.154787
0.513491 0.381476 0.160162
0.560792 0.386095 0.165546
0.607950 0.390716 0.170941
0.654833 0.395342 0.176345
0.701306 0.399970 0.181759
0.747236 0.404602 0.187182
0.792489 0.409237 0.192615
0.836931 0.413874 0.198056
0.116006 0.398123 0.130006
0.158956 0.402752 0.135333
0.202919 0.407384 0.140669
0.247763 0.412019 0.146017
0.293354 0.416657 0.151375
0.339559 0.421298 0.156743
0.386243 0.425941 0.162121
0.433273 0.430586 0.167509
0.480516 0.435234 0.172907
0.527838 0.439884 0.178315
0.575105 0.444535 0.183732
0.622183 0.449189 0.189159
0.668939 0.453844 0.194595
0.715240 0.458501 0.200040
0.760951 0.463159 0.205494
0.805939 0.467818 0.210956
0.850070 0.472478 0.216428
0.128719 0.456628 0.147966
0.172034 0.461285 0.153328
0.216317 0.465944 0.158700
0.261434 0.470603 0.164081
0.307252 0.475263 0.169473
0.353638 0.479925 0.174875
0.400457 0.484587 0.180286
0.447576 0.489250 0.185707
0.494861 0.493913 0.191137
0.542179 0.498577 0.196576
0.589395 0.503241 0.202024
0.636378 0.507905 0.207481
0.682991 0.512568 0.212947
0.729103 0.517232 0.218422
0.774580 0.521895 0.223905
0.819287 0.526558 0.229396
0.863091 0.531220 0.234896
0.141563 0.515354 0.166043
0.185228 0.520017 0.171439
0.229814 0.524680 0.176844
0.275189 0.529343 0.182258
0.321218 0.534005 0.187682
0.367768 0.538666 0.193116
0.414706 0.543326 0.198558
0.461897 0.547985 0.204010
0.509209 0.552643 0.209470
0.556507 0.557299 0.214940
0.603658 0.561954 0.220417
0.650528 0.566607 0.225903
0.696984 0.571258 0.231398
0.742891 0.575908 0.236900
0.788117 0.580555 0.242411
0.832527 0.585199 0.247929
0.875988 0.589842 0.253455
0.154533 0.574042 0.184232
0.198531 0.578691 0.189659
0.243405 0.583338 0.195096
0.289021 0.587983 0.200542
0.335246 0.592625 0.205997
0.381945 0.597264 0.211460
0.428986 0.601901 0.216933
0.476234 0.606535 0.222414
0.523556 0.611166 0.227903
0.570818 0.615794 0.233400
0.617887 0.620419 0.238906
0.664629 0.625040 0.244419
0.710910 0.629657 0.249940
0.756597 0.634271 0.255469
0.801556 0.638881 0.261005
0.845653 0.643487 0.266549
0.888756 0.648088 0.272100
0.167624 0.632438 0.202527
0.211940 0.637051 0.207985
0.257085 0.641660 0.213452
0.302927 0.646266 0.218927
0.349330 0.650867 0.224411
0.396163 0.655464 0.229903
0.443290 0.660056 0.235403
0.490579 0.664644 0.240912
0.537895 0.669227 0.246428
0.585106 0.673805 0.251952
0.632077 0.678378 0.257484
0.678675 0.682946 0.263023
0.724766 0.687509 0.268569
0.770216 0.692066 0.274123
0.814893 0.696617 0.279683
0.858661 0.701163 0.285250
0.901388 0.705702 0.290825
0.180830 0.690284 0.220923
0.225448 0.694840 0.226410
0.270849 0.699391 0.231905
0.316899 0.703936 0.237408
0.363466 0.708475 0.242919
0.410416 0.713008 0.248438
0.457614 0.717534 0.253965
0.504927 0.722055 0.259499
0.552222 0.726569 0.265041
0.599365 0.731076 0.270590
0.646222 0.735576 0.276146
0.692660 0.740070 0.281709
0.738545 0.744556 0.287279
0.783743 0.749035 0.292856
0.828121 0.753507 0.298439
0.871545 0.757971 0.304028
0.913881 0.762427 0.309624
0.194145 0.747323 0.239413
0.239049 0.751801 0.244928
0.284689 0.756272 0.250450
0.330934 0.760736 0.255979
0.377648 0.765191 0.261516
0.424698 0.769639 0.267060
0.471951 0.774079 0.272612
0.519274 0.778511 0.278171
0.566531 0.782934 0.283736
0.613590 0.787349 0.289308
0.660318 0.791756 0.294887
0.706580 0.796154 0.300473
0.752242 0.800543 0.306064
0.797172 0.804923 0.311662
0.841235 0.809293 0.317266
0.884298 0.813655 0.322876
0.926228 0.818007 0.328492
0.207564 0.803300 0.257994
0.252738 0.807679 0.263534
0.298602 0.812049 0.269081
0.345024 0.816409 0.274635
0.391869 0.820761 0.280196
0.439005 0.825102 0.285764
0.486297 0.829434 0.291339
0.533612 0.833756 0.296920
0.580816 0.838068 0.302508
0.627776 0.842369 0.308102
0.674358 0.846661 0.313702
0.720428 0.850942 0.319308
0.765852 0.855212 0.324920
0.810497 0.859472 0.330538
0.854230 0.863720 0.336161
0.896917 0.867958 0.341789
0.938423 0.872184 0.347423
0.221082 0.857958 0.276659
0.266509 0.862216 0.282222
0.312581 0.866464 0.287793
0.359165 0.870700 0.293370
0.406126 0.874926 0.298954
0.453330 0.879140 0.304544
0.500646 0.883342 0.310140
0.547937 0.887533 0.315742
0.595072 0.891712 0.321350
0.641916 0.895879 0.326964
0.688336 0.900034 0.332584
0.734198 0.904177 0.338209
0.779369 0.908308 0.343840
0.823714 0.912426 0.349476
0.867100 0.916531 0.355117
0.909394 0.920624 0.360762
0.950462 0.924703 0.366413
0.234693 0.911039 0.295402
0.280358 0.915156 0.300988
0.326622 0.919260 0.306580
0.373351 0.923351 0.312179
0.420411 0.927430 0.317783
0.467669 0.931495 0.323394
0.514991 0.935547 0.329010
0.562244 0.939586 0.334631
0.609293 0.943611 0.340259
0.656006 0.947622 0.345891
0.702248 0.951620 0.351529
0.747886 0.955603 0.357171
0.792787 0.959573 0.362819
0.836816 0.963528 0.368471
0.879840 0.967469 0.374128
0.921725 0.971396 0.379789
0.962338 0.975307 0.385455
0.032332 0.017603 0.047242
0.072324 0.021448 0.052397
0.113649 0.025308 0.057565
0.156173 0.029184 0.062745
0.199762 0.033074 0.067938
0.244284 0.036980 0.073143
0.289604 0.040900 0.078361
0.335589 0.044835 0.083591
0.382105 0.048784 0.088832
0.429018 0.052748 0.094086
0.476195 0.056726 0.099351
0.523503 0.060718 0.104627
0.570806 0.064723 0.109915
0.617973 0.068743 0.115214
0.664869 0.072776 0.120524
0.711360 0.076822 0.125845
0.757313 0.080882 0.131177
0.043987 0.067444 0.064634
0.084454 0.071465 0.069832
0.126209 0.075499 0.075042
0.169116 0.079547 0.080264
0.213043 0.083608 0.085498
0.257856 0.087682 0.090743
0.303421 0.091769 0.096001
0.349604 0.095870 0.101270
0.396272 0.099982 0.106551
0.443292 0.104108 0.111843
0.490529 0.108245 0.117146
0.537850 0.112396 0.122460
0.585122 0.116558 0.127785
0.632210 0.120732 0.133121
0.678981 0.124918 0.138467
0.725301 0.129116 0.143824
0.771037 0.133325 0.149191
0.055811 0.119294 0.082168
0.096738 0.123469 0.087406
0.138906 0.127656 0.092656
0.182181 0.131855 0.097918
0.226429 0.136065 0.103191
0.271517 0.140287 0.108476
0.317311 0.144520 0.113772
0.363677 0.148764 0.119079
0.410482 0.153019 0.124397
0.457592 0.157285 0.129726
0.504873 0.161562 0.135066
0.552192 0.165849 0.140416
0.599415 0.170146 0.145776
0.646409 0.174454 0.151147
0.693039 0.178772 0.156528
0.739173 0.183100 0.161919
0.784676 0.187437 0.167319
0.067799 0.172896 0.099837
0.109171 0.177204 0.105114
0.151736 0.181523 0.110403
0.195362 0.185852 0.115703
0.239916 0.190190 0.121014
0.285263 0.194539 0.126336
0.331269 0.198896 0.131669
0.377802 0.203263 0.137012
0.424727 0.207639 0.142366
0.471912 0.212024 0.147731
0.519221 0.216419 0.153105
0.566522 0.220821 0.158489
0.613681 0.225233 0.163884
0.660564 0.229653 0.169288
0.707038 0.234081 0.174701
0.752969 0.238518 0.180124
0.798223 0.242962 0.185557
0.079946 0.227994 0.117635
0.121745 0.232414 0.122951
0.164693 0.236844 0.128277
0.208654 0.241281 0.133613
0.253497 0.245726 0.138960
0.299087 0.250179 0.144318
0.345290 0.254640 0.149686
0.391974 0.259109 0.155064
0.439004 0.263585 0.160452
0.486247 0.268068 0.165850
0.533568 0.272559 0.171257
0.580835 0.277056 0.176675
0.627914 0.281561 0.182101
0.674671 0.286072 0.187537
0.720972 0.290589 0.192982
0.766685 0.295113 0.198435
0.811674 0.299644 0.203898
0.092246 0.284330 0.135559
0.134457 0.288842 0.140910
0.177770 0.293360 0.146271
0.222051 0.297885 0.151643
0.267167 0.302416 0.157024
0.312984 0.306953 0.162416
0.359369 0.311496 0.167817
0.406187 0.316045 0.173229
0.453306 0.320600 0.178649
0.500591 0.325160 0.184079
0.547909 0.329726 0.189518
0.595126 0.334297 0.194966
0.642109 0.338873 0.200423
0.688723 0.343454 0.205889
0.734836 0.348040 0.211363
0.780314 0.352630 0.216846
0.825022 0.357225 0.222338
0.104694 0.341650 0.153601
0.147301 0.346231 0.158986
0.190963 0.350818 0.164381
0.235548 0.355408 0.169786
0.280922 0.360004 0.175201
0.326950 0.364604 0.180625
0.373499 0.369208 0.186058
0.420437 0.373816 0.191500
0.467628 0.378428 0.196952
0.514939 0.383044 0.202412
0.562237 0.387664 0.207881
0.609389 0.392287 0.213359
0.656259 0.396913 0.218845
0.702716 0.401543 0.224339
0.748624 0.406176 0.229841
0.793851 0.410812 0.235352
0.838263 0.415450 0.240870
0.117284 0.399695 0.171756
0.160270 0.404325 0.177174
0.204267 0.408958 0.182602
0.249139 0.413594 0.188038
0.294754 0.418233 0.193484
0.340977 0.422874 0.198939
0.387676 0.427518 0.204402
0.434716 0.432164 0.209874
0.481964 0.436813 0.215355
0.529286 0.441463 0.220844
0.576549 0.446115 0.226341
0.623618 0.450770 0.231846
0.670361 0.455425 0.237360
0.716643 0.460082 0.242881
0.762331 0.464741 0.248409
0.807291 0.469401 0.253946
0.851390 0.474061 0.259489
0.130010 0.458210 0.190020
0.173361 0.462867 0.195469
0.217675 0.467526 0.200927
0.262819 0.472186 0.206393
0.308659 0.476846 0.211869
0.355062 0.481508 0.217352
0.401894 0.486170 0.222844
0.449021 0.490833 0.228345
0.496309 0.495497 0.233853
0.543626 0.500161 0.239369
0.590837 0.504825 0.244893
0.637808 0.509488 0.250424
0.684407 0.514152 0.255963
0.730499 0.518816 0.261509
0.775951 0.523479 0.267063
0.820628 0.528141 0.272623
0.864399 0.532803 0.278190
0.142867 0.516937 0.208386
0.186566 0.521601 0.213864
0.231182 0.526264 0.219351
0.276582 0.530926 0.224846
0.322631 0.535588 0.230349
0.369197 0.540249 0.235860
0.416146 0.544908 0.241379
0.463344 0.549567 0.246906
0.510658 0.554224 0.252440
0.557953 0.558880 0.257981
0.605096 0.563534 0.263530
0.651954 0.568187 0.269086
0.698393 0.572837 0.274649
0.744278 0.577486 0.280219
0.789478 0.582132 0.285795
0.833857 0.586776 0.291378
0.877283 0.591418 0.296968
0.155850 0.575621 0.226848
0.199880 0.580270 0.232354
0.244782 0.584916 0.237868
0.290422 0.589560 0.243390
0.336665 0.594201 0.248920
0.383379 0.598840 0.254456
0.430429 0.603475 0.260001
0.477682 0.608108 0.265552
0.525004 0.612738 0.271111
0.572262 0.617365 0.276676
0.619321 0.621988 0.282248
0.666049 0.626608 0.287827
0.712312 0.631224 0.293412
0.757976 0.635837 0.299004
0.802907 0.640445 0.304602
0.846972 0.645050 0.310206
0.890037 0.649650 0.315815
0.168952 0.634005 0.245402
0.213299 0.638617 0.250935
0.258471 0.643225 0.256474
0.304334 0.647829 0.262021
0.350755 0.652429 0.267575
0.397600 0.657024 0.273136
0.444735 0.661615 0.278704
0.492027 0.666201 0.284279
0.539342 0.670782 0.289860
0.586547 0.675359 0.295447
0.633507 0.679930 0.301041
0.680090 0.684496 0.306641
0.726160 0.689057 0.312247
0.771586 0.693612 0.317859
0.816233 0.698161 0.323477
0.859968 0.702705 0.329100
0.902656 0.707243 0.334728
0.182169 0.691832 0.264042
0.226816 0.696386 0.269599
0.272242 0.700935 0.275162
0.318313 0.705478 0.280733
0.364896 0.710015 0.286310
0.411856 0.714546 0.291893
0.459061 0.719070 0.297483
0.506376 0.723589 0.303079
0.553668 0.728100 0.308681
0.600803 0.732605 0.314290
0.647648 0.737103 0.319904
0.694069 0.741594 0.325523
0.739932 0.746078 0.331148
0.785103 0.750554 0.336779
0.829450 0.755024 0.342414
0.872838 0.759485 0.348055
0.915134 0.763939 0.353701
0.195495 0.748845 0.282762
0.240427 0.753321 0.288342
0.286091 0.757789 0.293928
0.332353 0.762250 0.299520
0.379082 0.766703 0.305118
0.426141 0.771148 0.310723
0.473399 0.775585 0.316333
0.520722 0.780014 0.321949
0.567974 0.784435 0.327570
0.615024 0.788847 0.333198
0.661738 0.793250 0.338830
0.707981 0.797645 0.344467
0.753620 0.802031 0.350110
0.798522 0.806408 0.355757
0.842553 0.810776 0.361410
0.885578 0.815134 0.367066
0.927466 0.819483 0.372727
0.208925 0.804788 0.301557
0.254124 0.809164 0.307158
0.300010 0.813531 0.312764
0.346449 0.817888 0.318377
0.393307 0.822236 0.323995
0.440450 0.826574 0.329618
0.487746 0.830903 0.335247
0.535059 0.835221 0.340882
0.582257 0.839530 0.346521
0.629206 0.843828 0.352165
0.675772 0.848116 0.357815
0.721821 0.852393 0.363468
0.767221 0.856660 0.369127
0.811837 0.860916 0.374790
0.855535 0.865161 0.380457
0.898183 0.869395 0.386128
0.939646 0.873617 0.391803
0.222452 0.859405 0.320421
0.267904 0.863660 0.326042
0.313996 0.867904 0.331667
0.360595 0.872136 0.337298
0.407567 0.876358 0.342934
0.454777 0.880568 0.348575
0.502094 0.884767 0.354222
0.549383 0.888953 0.359872
0.596510 0.893129 0.365528
0.643341 0.897292 0.371188
0.689744 0.901443 0.376852
0.735584 0.905581 0.382521
0.780728 0.909708 0.388193
0.825042 0.913821 0.393870
0.868392 0.917922 0.399550
0.910646 0.922011 0.405234
0.951668 0.926086 0.410921
0.236072 0.912439 0.339349
0.281760 0.916551 0.344987
0.328042 0.920651 0.350630
0.374785 0.924738 0.356278
0.421855 0.928812 0.361931
0.469117 0.932873 0.367588
0.516439 0.936920 0.373250
0.563687 0.940954 0.378915
0.610727 0.944975 0.384585
0.657425 0.948981 0.390259
0.703649 0.952974 0.395937
0.749263 0.956953 0.401619
0.794136 0.960918 0.407304
0.838132 0.964868 0.412992
0.881118 0.968804 0.418684
0.922961 0.972726 0.424379
0.963527 0.976632 0.430077
0.033501 0.018907 0.087516
0.073541 0.022757 0.092782
0.114910 0.026623 0.098059
0.157474 0.030503 0.103348
0.201098 0.034399 0.108648
0.245650 0.038310 0.113959
0.290996 0.042235 0.119280
0.337001 0.046175 0.124613
0.383533 0.050129 0.129956
0.430458 0.054097 0.135310
0.477642 0.058080 0.140674
0.524951 0.062076 0.146048
0.572252 0.066087 0.151432
0.619412 0.070111 0.156826
0.666296 0.074149 0.162230
0.712770 0.078200 0.167644
