src/skills/remotion-render/public/luts/editorial-grade.cube
TITLE "editorial-grade (generated, see effects/generate-editorial-lut.mjs)"
LUT_3D_SIZE 9
DOMAIN_MIN 0.0 0.0 0.0
DOMAIN_MAX 1.0 1.0 1.0
0.030000 0.015000 0.000000
0.111130 0.022685 0.000000
0.197094 0.030430 0.000000
0.286824 0.038236 0.000000
0.379250 0.046100 0.009604
0.473303 0.054022 0.019652
0.567914 0.062001 0.029757
0.662013 0.070035 0.039917
0.754532 0.078123 0.050131
0.053410 0.116465 0.003244
0.136332 0.124811 0.013256
0.223718 0.133205 0.023325
0.314501 0.141644 0.033450
0.407610 0.150128 0.043629
0.501976 0.158656 0.053863
0.596531 0.167226 0.064149
0.690205 0.175838 0.074487
0.781930 0.184490 0.084875
0.077481 0.224996 0.037149
0.162067 0.233834 0.047349
0.250747 0.242706 0.057602
0.342455 0.251610 0.067907
0.436119 0.260544 0.078263
0.530672 0.269508 0.088669
0.625043 0.278500 0.099123
0.718165 0.287520 0.109626
0.808966 0.296566 0.120174
0.102169 0.338541 0.071671
0.188291 0.347702 0.082046
0.278138 0.356882 0.092469
0.370643 0.366080 0.102941
0.464735 0.375295 0.113461
0.559346 0.384526 0.124026
0.653406 0.393771 0.134636
0.745847 0.403029 0.145289
0.835599 0.412299 0.155985
0.127430 0.455047 0.106766
0.214959 0.464361 0.117302
0.305846 0.473681 0.127883
0.399020 0.483004 0.138509
0.493412 0.492329 0.149178
0.587954 0.501657 0.159890
0.681576 0.510984 0.170642
0.773208 0.520312 0.181434
0.861782 0.529637 0.192264
0.153219 0.572463 0.142389
0.242029 0.581760 0.153073
0.333827 0.591049 0.163799
0.427543 0.600327 0.174566
0.522108 0.609594 0.185372
0.616452 0.618849 0.196216
0.709507 0.628090 0.207098
0.800204 0.637316 0.218015
0.887473 0.646526 0.228967
0.179492 0.688735 0.178496
0.269456 0.697846 0.189316
0.362037 0.706934 0.200174
0.456167 0.715998 0.211068
0.550777 0.725037 0.221998
0.644797 0.734049 0.232962
0.737158 0.743033 0.243959
0.826791 0.751989 0.254988
0.912626 0.760915 0.266048
0.206205 0.801811 0.215043
0.297194 0.810566 0.225986
0.390432 0.819284 0.236962
0.484849 0.827964 0.247971
0.579375 0.836604 0.259011
0.672943 0.845205 0.270082
0.764482 0.853763 0.281182
0.852924 0.862279 0.292311
0.937199 0.870750 0.303466
0.233315 0.909638 0.251987
0.325202 0.917868 0.263039
0.418968 0.926046 0.274120
0.513543 0.934172 0.285231
0.607860 0.942245 0.296369
0.700847 0.950264 0.307533
0.791437 0.958227 0.318723
0.878560 0.966132 0.329937
0.961146 0.973980 0.341174
0.032332 0.017603 0.047242
0.113649 0.025308 0.057565
0.199762 0.033074 0.067938
0.289604 0.040900 0.078361
0.382105 0.048784 0.088832
0.476195 0.056726 0.099351
0.570806 0.064723 0.109915
0.664869 0.072776 0.120524
0.757313 0.080882 0.131177
0.055811 0.119294 0.082168
0.138906 0.127656 0.092656
0.226429 0.136065 0.103191
0.317311 0.144520 0.113772
0.410482 0.153019 0.124397
0.504873 0.161562 0.135066
0.599415 0.170146 0.145776
0.693039 0.178772 0.156528
0.784676 0.187437 0.167319
0.079946 0.227994 0.117635
0.164693 0.236844 0.128277
0.253497 0.245726 0.138960
0.345290 0.254640 0.149686
0.439004 0.263585 0.160452
0.533568 0.272559 0.171257
0.627914 0.281561 0.182101
0.720972 0.290589 0.192982
0.811674 0.299644 0.203898
0.104694 0.341650 0.153601
0.190963 0.350818 0.164381
0.280922 0.360004 0.175201
0.373499 0.369208 0.186058
0.467628 0.378428 0.196952
0.562237 0.387664 0.207881
0.656259 0.396913 0.218845
0.748624 0.406176 0.229841
0.838263 0.415450 0.240870
0.130010 0.458210 0.190020
0.217675 0.467526 0.200927
0.308659 0.476846 0.211869
0.401894 0.486170 0.222844
0.496309 0.495497 0.233853
0.590837 0.504825 0.244893
0.684407 0.514152 0.255963
0.775951 0.523479 0.267063
0.864399 0.532803 0.278190
0.155850 0.575621 0.226848
0.244782 0.584916 0.237868
0.336665 0.594201 0.248920
0.430429 0.603475 0.260001
0.525004 0.612738 0.271111
0.619321 0.621988 0.282248
0.712312 0.631224 0.293412
0.802907 0.640445 0.304602
0.890037 0.649650 0.315815
0.182169 0.691832 0.264042
0.272242 0.700935 0.275162
0.364896 0.710015 0.286310
0.459061 0.719070 0.297483
0.553668 0.728100 0.308681
0.647648 0.737103 0.319904
0.739932 0.746078 0.331148
0.829450 0.755024 0.342414
0.915134 0.763939 0.353701
0.208925 0.804788 0.301557
0.300010 0.813531 0.312764
0.393307 0.822236 0.323995
0.487746 0.830903 0.335247
0.582257 0.839530 0.346521
0.675772 0.848116 0.357815
0.767221 0.856660 0.369127
0.855535 0.865161 0.380457
0.939646 0.873617 0.391803
0.236072 0.912439 0.339349
0.328042 0.920651 0.350630
0.421855 0.928812 0.361931
0.516439 0.936920 0.373250
0.610727 0.944975 0.384585
0.703649 0.952974 0.395937
0.794136 0.960918 0.407304
0.881118 0.968804 0.418684
0.963527 0.976632 0.430077
0.034671 0.020213 0.128747
0.116173 0.027939 0.139487
0.202435 0.035725 0.150267
0.292388 0.043571 0.161086
0.384962 0.051475 0.171942
0.479088 0.059436 0.182836
0.573698 0.067452 0.193764
0.667722 0.075523 0.204727
0.760091 0.083647 0.215723
0.058218 0.122128 0.165034
0.141486 0.130507 0.175904
0.229144 0.138932 0.186810
0.320124 0.147402 0.197752
0.413355 0.155916 0.208727
0.507770 0.164473 0.219735
0.602298 0.173071 0.230774
0.695871 0.181710 0.241844
0.787419 0.190389 0.252943
0.082418 0.230995 0.201743
0.167323 0.239856 0.212730
0.256250 0.248750 0.223750
0.348128 0.257675 0.234801
0.441890 0.266629 0.245881
0.536464 0.275613 0.256991
0.630783 0.284624 0.268128
0.723777 0.293662 0.279292
0.814378 0.302725 0.290481
0.107225 0.344761 0.238831
0.193641 0.353935 0.249923
0.283708 0.363128 0.261042
0.376358 0.372337 0.272189
0.470521 0.381563 0.283362
0.565129 0.390803 0.294560
0.659111 0.400058 0.305782
0.751398 0.409324 0.317026
0.840923 0.418602 0.328292
0.132595 0.461373 0.276254
0.220394 0.470691 0.287436
0.311475 0.480013 0.298643
0.404769 0.489338 0.309873
0.499206 0.498665 0.321125
0.593718 0.507992 0.332398
0.687236 0.517320 0.343692
0.778689 0.526646 0.355003
0.867010 0.535969 0.366333
0.158486 0.578779 0.313967
0.247539 0.588070 0.325227
0.339506 0.597352 0.336508
0.433315 0.606623 0.347808
0.527900 0.615881 0.359126
0.622189 0.625127 0.370462
0.715114 0.634358 0.381813
0.805606 0.643573 0.393179
0.892596 0.652772 0.404559
0.184851 0.694926 0.351926
0.275032 0.704021 0.363251
0.367757 0.713093 0.374593
0.461955 0.722140 0.385950
0.556558 0.731161 0.397321
0.650497 0.740154 0.408706
0.742702 0.749119 0.420102
0.832105 0.758055 0.431510
0.917636 0.766960 0.442928
0.211648 0.807761 0.390088
0.302829 0.816491 0.401464
0.396183 0.825184 0.412853
0.490643 0.833837 0.424254
0.585137 0.842450 0.435666
0.678598 0.851022 0.447086
0.769956 0.859552 0.458515
0.858141 0.868038 0.469951
0.942086 0.876479 0.481393
0.238832 0.915233 0.428408
0.330885 0.923428 0.439823
0.424742 0.931571 0.451246
0.519335 0.939662 0.462678
0.613593 0.947698 0.474116
0.706448 0.955678 0.485560
0.796830 0.963603 0.497007
0.883671 0.971469 0.508458
0.965902 0.979277 0.519911
0.037017 0.022830 0.213651
0.118703 0.030577 0.224712
0.205112 0.038383 0.235803
0.295174 0.046249 0.246922
0.387820 0.054172 0.258069
0.481982 0.062152 0.269241
0.576589 0.070187 0.280439
0.670573 0.078276 0.291660
0.762865 0.086418 0.302904
0.060633 0.124968 0.250977
0.144071 0.133363 0.262133
0.231863 0.141803 0.273315
0.322939 0.150288 0.284521
0.416230 0.158817 0.295751
0.510666 0.167388 0.307003
0.605179 0.176001 0.318276
0.698700 0.184653 0.329569
0.790158 0.193345 0.340880
0.084895 0.234001 0.288607
0.169959 0.242873 0.299845
0.259007 0.251777 0.311105
0.350969 0.260712 0.322385
0.444776 0.269677 0.333685
0.539360 0.278670 0.345003
0.633651 0.287690 0.356338
0.726579 0.296737 0.367689
0.817077 0.305808 0.379055
0.109761 0.347874 0.326496
0.196322 0.357055 0.337803
0.286498 0.366254 0.349128
0.379219 0.375469 0.360469
0.473415 0.384700 0.371826
0.568019 0.393945 0.383197
0.661960 0.403203 0.394581
0.754169 0.412474 0.405978
0.843578 0.421755 0.417385
0.135186 0.464537 0.364602
0.223117 0.473856 0.375964
0.314293 0.483179 0.387340
0.407645 0.492505 0.398729
0.502103 0.501832 0.410130
0.596598 0.511160 0.421541
0.690062 0.520487 0.432961
0.781424 0.529812 0.444390
0.869617 0.539134 0.455826
0.161126 0.581935 0.402878
0.250300 0.591223 0.414283
0.342348 0.600501 0.425698
0.436203 0.609768 0.437121
0.530795 0.619023 0.448553
0.625055 0.628263 0.459991
0.717913 0.637489 0.471434
0.808301 0.646699 0.482882
0.895149 0.655892 0.494333
0.187538 0.698017 0.441282
0.277825 0.707105 0.452716
0.370619 0.716168 0.464156
0.464849 0.725206 0.475601
0.559447 0.734218 0.487051
0.653344 0.743202 0.498502
0.745469 0.752157 0.509956
0.834755 0.761082 0.521409
0.920132 0.769976 0.532862
0.214376 0.810730 0.479769
0.305650 0.819448 0.491219
0.399061 0.828127 0.502672
0.493540 0.836767 0.514126
0.588016 0.845366 0.525579
0.681421 0.853924 0.537032
0.772687 0.862438 0.548482
0.860742 0.870909 0.559928
0.944520 0.879335 0.571370
0.241596 0.918022 0.518296
0.333730 0.926200 0.529749
0.427631 0.934325 0.541201
0.522230 0.942397 0.552650
0.616457 0.950414 0.564095
0.709243 0.958376 0.575535
0.799521 0.966281 0.586968
0.886219 0.974127 0.598395
0.968269 0.981915 0.609812
0.039371 0.025454 0.301086
0.121240 0.033221 0.312374
0.207794 0.041048 0.323680
0.297964 0.048933 0.335004
0.390681 0.056876 0.346345
0.484876 0.064874 0.357701
0.579480 0.072928 0.369072
0.673423 0.081035 0.380457
0.765636 0.089195 0.391853
0.063053 0.127814 0.339131
0.146662 0.136224 0.350478
0.234586 0.144680 0.361840
0.325758 0.153180 0.373216
0.419106 0.161723 0.384604
0.513563 0.170308 0.396005
0.608060 0.178935 0.407416
0.701526 0.187600 0.418836
0.792893 0.196305 0.430265
0.087379 0.237010 0.377360
0.172600 0.245894 0.388754
0.261767 0.254808 0.400158
0.353811 0.263754 0.411573
0.447664 0.272728 0.422996
0.542256 0.281730 0.434427
0.636517 0.290760 0.445865
0.729379 0.299814 0.457309
0.819772 0.308894 0.468756
0.112303 0.350990 0.415730
0.199009 0.360177 0.427157
0.289291 0.369381 0.438591
0.382081 0.378602 0.450031
0.476310 0.387838 0.461476
0.570908 0.397088 0.472925
0.664807 0.406350 0.484377
0.756936 0.415625 0.495830
0.846228 0.424910 0.507284
0.137782 0.467701 0.454197
0.225845 0.477022 0.465644
0.317114 0.486346 0.477094
0.410523 0.495672 0.488546
0.505000 0.505000 0.500000
0.599477 0.514328 0.511454
0.692886 0.523654 0.522906
0.784155 0.532978 0.534356
0.872218 0.542299 0.545803
0.163772 0.585090 0.492716
0.253064 0.594375 0.504170
0.345193 0.603650 0.515623
0.439092 0.612912 0.527075
0.533690 0.622162 0.538524
0.627919 0.631398 0.549969
0.720709 0.640619 0.561409
0.810991 0.649823 0.572843
0.897697 0.659010 0.584270
0.190228 0.701106 0.531244
0.280621 0.710186 0.542691
0.373483 0.719240 0.554135
0.467744 0.728270 0.565573
0.562336 0.737272 0.577004
0.656189 0.746246 0.588427
0.748233 0.755192 0.599842
0.837400 0.764106 0.611246
0.922621 0.772990 0.622640
0.217107 0.813695 0.569735
0.308474 0.822400 0.581164
0.401940 0.831065 0.592584
0.496437 0.839692 0.603995
0.590894 0.848277 0.615396
0.684242 0.856820 0.626784
0.775414 0.865320 0.638160
0.863338 0.873776 0.649522
0.946947 0.882186 0.660869
0.244364 0.920805 0.608147
0.336577 0.928965 0.619543
0.430520 0.937072 0.630928
0.525124 0.945126 0.642299
0.619319 0.953124 0.653655
0.712036 0.961067 0.664996
0.802206 0.968952 0.676320
0.888760 0.976779 0.687626
0.970629 0.984546 0.698914
0.041731 0.028085 0.390188
0.123781 0.035873 0.401605
0.210479 0.043719 0.413032
0.300757 0.051624 0.424465
0.393543 0.059586 0.435905
0.487770 0.067603 0.447350
0.582369 0.075675 0.458799
0.676270 0.083800 0.470251
0.768404 0.091978 0.481704
0.065480 0.130665 0.428630
0.149258 0.139091 0.440072
0.237313 0.147562 0.451518
0.328579 0.156076 0.462968
0.421984 0.164634 0.474421
0.516460 0.173233 0.485874
0.610939 0.181873 0.497328
0.704350 0.190552 0.508781
0.795624 0.199270 0.520231
0.089868 0.240024 0.467138
0.175245 0.248918 0.478591
0.264531 0.257843 0.490044
0.356656 0.266798 0.501498
0.450553 0.275782 0.512949
0.545151 0.284794 0.524399
0.639381 0.293832 0.535844
0.732175 0.302895 0.547284
0.822462 0.311983 0.558718
0.114851 0.354108 0.505667
0.201699 0.363301 0.517118
0.292087 0.372511 0.528566
0.384945 0.381737 0.540009
0.479205 0.390977 0.551447
0.573797 0.400232 0.562879
0.667652 0.409499 0.574302
0.759700 0.418777 0.585717
0.848874 0.428065 0.597122
0.140383 0.470866 0.544174
0.228576 0.480188 0.555610
0.319938 0.489513 0.567039
0.413402 0.498840 0.578459
0.507897 0.508168 0.589870
0.602355 0.517495 0.601271
0.695707 0.526821 0.612660
0.786883 0.536144 0.624036
0.874814 0.545463 0.635398
0.166422 0.588245 0.582615
0.255831 0.597526 0.594022
0.348040 0.606797 0.605419
0.441981 0.616055 0.616803
0.536585 0.625300 0.628174
0.630781 0.634531 0.639531
0.723502 0.643746 0.650872
0.813678 0.652945 0.662197
0.900239 0.662126 0.673504
0.192923 0.704192 0.620945
0.283421 0.713263 0.632311
0.376349 0.722310 0.643662
0.470640 0.731330 0.654997
0.565224 0.740323 0.666315
0.659031 0.749288 0.677615
0.750993 0.758223 0.688895
0.840041 0.767127 0.700155
0.925105 0.775999 0.711393
0.219842 0.816655 0.659120
0.311300 0.825347 0.670431
0.404821 0.833999 0.681724
0.499334 0.842612 0.692997
0.593770 0.851183 0.704249
0.687061 0.859712 0.715479
0.778137 0.868197 0.726685
0.865929 0.876637 0.737867
0.949367 0.885032 0.749023
0.247135 0.923582 0.697096
0.339427 0.931724 0.708340
0.433411 0.939813 0.719561
0.528018 0.947848 0.730759
0.622180 0.955828 0.741931
0.714826 0.963751 0.753078
0.804888 0.971617 0.764197
0.891297 0.979423 0.775288
0.972983 0.987170 0.786349
0.044098 0.030723 0.480089
0.126329 0.038531 0.491542
0.213170 0.046397 0.502993
0.303552 0.054322 0.514440
0.396407 0.062302 0.525884
0.490665 0.070338 0.537322
0.585258 0.078429 0.548754
0.679115 0.086572 0.560177
0.771168 0.094767 0.571592
0.067914 0.133521 0.518607
0.151859 0.141962 0.530049
0.240044 0.150448 0.541485
0.331402 0.158978 0.552914
0.424863 0.167550 0.564334
0.519357 0.176163 0.575746
0.613817 0.184816 0.587147
0.707171 0.193509 0.598536
0.798352 0.202239 0.609912
0.092364 0.243040 0.557072
0.177895 0.251945 0.568490
0.267298 0.260881 0.579898
0.359503 0.269846 0.591294
0.453442 0.278839 0.602679
0.548045 0.287860 0.614050
0.642243 0.296907 0.625407
0.734968 0.305979 0.636749
0.825149 0.315074 0.648074
0.117404 0.357228 0.595441
0.204394 0.366427 0.606821
0.294886 0.375642 0.618187
0.387811 0.384873 0.629538
0.482100 0.394119 0.640874
0.576685 0.403377 0.652192
0.670494 0.412648 0.663492
0.762461 0.421930 0.674773
0.851514 0.431221 0.686033
0.142990 0.474031 0.633667
0.231311 0.483354 0.644997
0.322764 0.492680 0.656308
0.416282 0.502008 0.667602
0.510794 0.511335 0.678875
0.605231 0.520662 0.690127
0.698525 0.529987 0.701357
0.789606 0.539309 0.712564
0.877405 0.548627 0.723746
0.169077 0.591398 0.671708
0.258602 0.600676 0.682974
0.350889 0.609942 0.694218
0.444871 0.619197 0.705440
0.539479 0.628437 0.716638
0.633642 0.637663 0.727811
0.726292 0.646872 0.738958
0.816359 0.656065 0.750077
0.902775 0.665239 0.761169
0.195622 0.707275 0.709519
0.286223 0.716338 0.720708
0.379217 0.725376 0.731872
0.473536 0.734387 0.743009
0.568110 0.743371 0.754119
0.661872 0.752325 0.765199
0.753750 0.761250 0.776250
0.842677 0.770144 0.787270
0.927582 0.779005 0.798257
0.222581 0.819611 0.747057
0.314129 0.828290 0.758156
0.407702 0.836929 0.769226
0.502230 0.845527 0.780265
0.596645 0.854084 0.791273
0.689876 0.862598 0.802248
0.780856 0.871068 0.813190
0.868514 0.879493 0.824096
0.951782 0.887872 0.834966
0.249909 0.926353 0.784277
0.342278 0.934477 0.795273
0.436302 0.942548 0.806236
0.530912 0.950564 0.817164
0.625038 0.958525 0.828058
0.717612 0.966429 0.838914
0.807565 0.974275 0.849733
0.893827 0.982061 0.860513
0.975329 0.989787 0.871253
0.046473 0.033368 0.569923
0.128882 0.041196 0.581316
0.215864 0.049082 0.592696
0.306351 0.057026 0.604063
0.399273 0.065025 0.615415
0.493561 0.073080 0.626750
0.588145 0.081188 0.638069
0.681958 0.089349 0.649370
0.773928 0.097561 0.660651
0.070354 0.136383 0.608197
0.154465 0.144839 0.619543
0.242779 0.153340 0.630873
0.334228 0.161884 0.642185
0.427743 0.170470 0.653479
0.522254 0.179097 0.664753
0.616693 0.187764 0.676005
0.709990 0.196469 0.687236
0.801075 0.205212 0.698443
0.094866 0.246061 0.646299
0.180550 0.254976 0.657586
0.270068 0.263922 0.668852
0.362352 0.272897 0.680096
0.456332 0.281900 0.691319
0.550939 0.290930 0.702517
0.645104 0.299985 0.713690
0.737758 0.309065 0.724838
0.827831 0.318168 0.735958
0.119963 0.360350 0.684185
0.207093 0.369555 0.695398
0.297688 0.378776 0.706588
0.390679 0.388012 0.717752
0.484996 0.397262 0.728889
0.579571 0.406525 0.739999
0.673335 0.415799 0.751080
0.765218 0.425084 0.762132
0.854150 0.434379 0.773152
0.145601 0.477197 0.721810
0.234049 0.486521 0.732937
0.325593 0.495848 0.744037
0.419163 0.505175 0.755107
0.513691 0.514503 0.766147
0.608106 0.523830 0.777156
0.701341 0.533154 0.788131
0.792325 0.542474 0.799073
0.879990 0.551790 0.809980
0.171737 0.594550 0.759130
0.261376 0.603824 0.770159
0.353741 0.613087 0.781155
0.447763 0.622336 0.792119
0.542372 0.631572 0.803048
0.636501 0.640792 0.813942
0.729078 0.649996 0.824799
0.819037 0.659182 0.835619
0.905306 0.668350 0.846399
0.198326 0.710356 0.796102
0.289028 0.719411 0.807018
0.382086 0.728439 0.817899
0.476432 0.737441 0.828743
0.570996 0.746415 0.839548
0.664710 0.755360 0.850314
0.756503 0.764274 0.861040
0.845307 0.773156 0.871723
0.930054 0.782006 0.882365
0.225324 0.822563 0.832681
0.316961 0.831228 0.843472
0.410585 0.839854 0.854224
0.505127 0.848438 0.864934
0.599518 0.856981 0.875603
0.692689 0.865480 0.886228
0.783571 0.873935 0.896809
0.871094 0.882344 0.907344
0.954189 0.890706 0.917832
0.252687 0.929118 0.868823
0.345131 0.937224 0.879476
0.439194 0.945277 0.890085
0.533805 0.953274 0.900649
0.627895 0.961216 0.911168
0.720396 0.969100 0.921639
0.810238 0.976926 0.932062
0.896351 0.984692 0.942435
0.977668 0.992397 0.952758
0.048854 0.036020 0.658826
0.131440 0.043868 0.670063
0.218563 0.051773 0.681277
0.309153 0.059736 0.692467
0.402140 0.067755 0.703631
0.496457 0.075828 0.714769
0.591032 0.083954 0.725880
0.684798 0.092132 0.736961
0.776685 0.100362 0.748013
0.072801 0.139250 0.696534
0.157076 0.147721 0.707689
0.245518 0.156237 0.718818
0.337057 0.164795 0.729918
0.430625 0.173396 0.740989
0.525151 0.182036 0.752029
0.619568 0.190716 0.763038
0.712806 0.199434 0.774014
0.803795 0.208189 0.784957
0.097374 0.249085 0.733952
0.183209 0.258011 0.745012
0.272842 0.266967 0.756041
0.365203 0.275951 0.767038
0.459223 0.284963 0.778002
0.553833 0.294002 0.788932
0.647963 0.303066 0.799826
0.740544 0.312154 0.810684
0.830508 0.321265 0.821504
0.122527 0.363474 0.771033
0.209796 0.372684 0.781985
0.300493 0.381910 0.792902
0.393548 0.391151 0.803784
0.487892 0.400406 0.814628
0.582457 0.409673 0.825434
0.676173 0.418951 0.836201
0.767971 0.428240 0.846927
0.856781 0.437537 0.857611
0.148218 0.480363 0.807736
0.236792 0.489688 0.818566
0.328424 0.499016 0.829358
0.422046 0.508343 0.840110
0.516588 0.517671 0.850822
0.610980 0.526996 0.861491
0.704154 0.536319 0.872117
0.795041 0.545639 0.882698
0.882570 0.554953 0.893234
0.174401 0.597701 0.844015
0.264153 0.606971 0.854711
0.356594 0.616229 0.865364
0.450654 0.625474 0.875974
0.545265 0.634705 0.886539
0.639357 0.643920 0.897059
0.731862 0.653118 0.907531
0.821709 0.662298 0.917954
0.907831 0.671459 0.928329
0.201034 0.713434 0.879826
0.291835 0.722480 0.890374
0.384957 0.731500 0.900877
0.479328 0.740492 0.911331
0.573881 0.749456 0.921737
0.667545 0.758390 0.932093
0.759253 0.767294 0.942398
0.847933 0.776166 0.952651
0.932519 0.785004 0.962851
0.228070 0.825510 0.915125
0.319795 0.834162 0.925513
0.413469 0.842774 0.935851
0.508024 0.851344 0.946137
0.602390 0.859872 0.956371
0.695499 0.868356 0.966550
0.786282 0.876795 0.976675
0.873668 0.885189 0.986744
0.956590 0.893535 0.996756
0.255468 0.931877 0.949869
0.347987 0.939965 0.960083
0.442086 0.947999 0.970243
0.536697 0.955978 0.980348
0.630750 0.963900 0.990396
0.723176 0.971764 1.000000
0.812906 0.979570 1.000000
0.898870 0.987315 1.000000
0.980000 0.995000 1.000000
